Newaita/actions/32/kdenlive-select-images.svg

<svg height="32" viewBox="0 0 32 32" width="32" xmlns="http://www.w3.org/2000/svg"><g fill="#424242"><path d="m5.292969 2.894531c-1.464844 0-2.648438 1.183594-2.648438 2.648438v5.292969h2.648438v-3.96875c0-.734376.589843-1.324219 1.320312-1.324219h3.972657v-2.648438zm15.875 0v2.648438h3.96875c.734375 0 1.324219.589843 1.324219 1.324219v3.96875h2.644531v-5.292969c0-1.464844-1.179688-2.648438-2.644531-2.648438zm-18.523438 18.523438v5.292969c0 1.464843 1.183594 2.644531 2.648438 2.644531h5.292969v-2.644531h-3.972657c-.730469 0-1.320312-.589844-1.320312-1.324219v-3.96875zm23.816407 0v3.96875c0 .734375-.589844 1.324219-1.324219 1.324219h-3.96875v2.644531h5.292969c1.464843 0 2.644531-1.179688 2.644531-2.644531v-5.292969zm0 0"/><path d="m11.988281 12.417969c-.253906-.003907-.492187.132812-.613281.355469l-7.277344 13.230468c-.125.214844-.121094.480469.007813.691406.125.214844.359375.339844.605469.335938.246093-.007812.472656-.148438.589843-.367188l6.707031-12.195312 4.675782 7.59375c.109375.179688.296875.296875.503906.324219.207031.023437.417969-.050781.566406-.199219l3.414063-3.414062 6.140625 7.980468c.148437.199219.390625.300782.636718.269532.246094-.03125.453126-.191407.546876-.421876.09375-.230468.054687-.492187-.097657-.683593l-6.613281-8.601563c-.121094-.15625-.304688-.253906-.5-.265625-.199219-.011719-.390625.058594-.53125.199219l-3.355469 3.355469-4.835937-7.859375c-.121094-.199219-.335938-.324219-.570313-.328125zm0 0"/><path d="m20.90625 7.125c-1.652344 0-3.003906 1.351562-3.003906 3.003906 0 1.648438 1.351562 3 3.003906 3 1.648438 0 3-1.351562 3-3 0-1.652344-1.351562-3.003906-3-3.003906zm0 1.375c.914062 0 1.628906.714844 1.628906 1.628906 0 .914063-.714844 1.628906-1.628906 1.628906s-1.628906-.714843-1.628906-1.628906c0-.914062.714844-1.628906 1.628906-1.628906zm0 0"/></g></svg>

<?xml version="1.0" encoding="UTF-8"?>
<svg xmlns="http://www.w3.org/2000/svg" xmlns:xlink="http://www.w3.org/1999/xlink" width="32px" height="32px" viewBox="0 0 32 32" version="1.1">
<g id="surface1">
<path style=" stroke:none;fill-rule:nonzero;fill:rgb(25.882354%,25.882354%,25.882354%);fill-opacity:1;" d="M 5.292969 2.894531 C 3.828125 2.894531 2.644531 4.078125 2.644531 5.542969 L 2.644531 10.835938 L 5.292969 10.835938 L 5.292969 6.867188 C 5.292969 6.132812 5.882812 5.542969 6.613281 5.542969 L 10.585938 5.542969 L 10.585938 2.894531 Z M 21.167969 2.894531 L 21.167969 5.542969 L 25.136719 5.542969 C 25.871094 5.542969 26.460938 6.132812 26.460938 6.867188 L 26.460938 10.835938 L 29.105469 10.835938 L 29.105469 5.542969 C 29.105469 4.078125 27.925781 2.894531 26.460938 2.894531 Z M 2.644531 21.417969 L 2.644531 26.710938 C 2.644531 28.175781 3.828125 29.355469 5.292969 29.355469 L 10.585938 29.355469 L 10.585938 26.710938 L 6.613281 26.710938 C 5.882812 26.710938 5.292969 26.121094 5.292969 25.386719 L 5.292969 21.417969 Z M 26.460938 21.417969 L 26.460938 25.386719 C 26.460938 26.121094 25.871094 26.710938 25.136719 26.710938 L 21.167969 26.710938 L 21.167969 29.355469 L 26.460938 29.355469 C 27.925781 29.355469 29.105469 28.175781 29.105469 26.710938 L 29.105469 21.417969 Z M 26.460938 21.417969 "/>
<path style=" stroke:none;fill-rule:nonzero;fill:rgb(25.882354%,25.882354%,25.882354%);fill-opacity:1;" d="M 11.988281 12.417969 C 11.734375 12.414062 11.496094 12.550781 11.375 12.773438 L 4.097656 26.003906 C 3.972656 26.21875 3.976562 26.484375 4.105469 26.695312 C 4.230469 26.910156 4.464844 27.035156 4.710938 27.03125 C 4.957031 27.023438 5.183594 26.882812 5.300781 26.664062 L 12.007812 14.46875 L 16.683594 22.0625 C 16.792969 22.242188 16.980469 22.359375 17.1875 22.386719 C 17.394531 22.410156 17.605469 22.335938 17.753906 22.1875 L 21.167969 18.773438 L 27.308594 26.753906 C 27.457031 26.953125 27.699219 27.054688 27.945312 27.023438 C 28.191406 26.992188 28.398438 26.832031 28.492188 26.601562 C 28.585938 26.371094 28.546875 26.109375 28.394531 25.917969 L 21.78125 17.316406 C 21.660156 17.160156 21.476562 17.0625 21.28125 17.050781 C 21.082031 17.039062 20.890625 17.109375 20.75 17.25 L 17.394531 20.605469 L 12.558594 12.746094 C 12.4375 12.546875 12.222656 12.421875 11.988281 12.417969 Z M 11.988281 12.417969 "/>
<path style=" stroke:none;fill-rule:nonzero;fill:rgb(25.882354%,25.882354%,25.882354%);fill-opacity:1;" d="M 20.90625 7.125 C 19.253906 7.125 17.902344 8.476562 17.902344 10.128906 C 17.902344 11.777344 19.253906 13.128906 20.90625 13.128906 C 22.554688 13.128906 23.90625 11.777344 23.90625 10.128906 C 23.90625 8.476562 22.554688 7.125 20.90625 7.125 Z M 20.90625 8.5 C 21.820312 8.5 22.535156 9.214844 22.535156 10.128906 C 22.535156 11.042969 21.820312 11.757812 20.90625 11.757812 C 19.992188 11.757812 19.277344 11.042969 19.277344 10.128906 C 19.277344 9.214844 19.992188 8.5 20.90625 8.5 Z M 20.90625 8.5 "/>
</g>
</svg>
